static/images/youtube.svg

<svg width="32" height="24" viewBox="0 0 32 24" fill="none" xmlns="http://www.w3.org/2000/svg">
<path d="M31.6812 5.15977C31.6812 5.15977 31.3687 2.81563 30.4062 1.78633C29.1875 0.431641 27.825 0.425 27.2 0.345312C22.725 -1.78814e-07 16.0063 0 16.0063 0H15.9937C15.9937 0 9.275 -1.78814e-07 4.8 0.345312C4.175 0.425 2.8125 0.431641 1.59375 1.78633C0.63125 2.81563 0.325 5.15977 0.325 5.15977C0.325 5.15977 0 7.91562 0 10.6648V13.2414C0 15.9906 0.31875 18.7465 0.31875 18.7465C0.31875 18.7465 0.63125 21.0906 1.5875 22.1199C2.80625 23.4746 4.40625 23.4281 5.11875 23.5742C7.68125 23.8332 16 23.9129 16 23.9129C16 23.9129 22.725 23.8996 27.2 23.5609C27.825 23.4813 29.1875 23.4746 30.4062 22.1199C31.3687 21.0906 31.6812 18.7465 31.6812 18.7465C31.6812 18.7465 32 15.9973 32 13.2414V10.6648C32 7.91562 31.6812 5.15977 31.6812 5.15977ZM12.6938 16.3691V6.81328L21.3375 11.6078L12.6938 16.3691Z" fill="black"/>
</svg>

<svg width="32" height="24" fill="none" xmlns="http://www.w3.org/2000/svg">
    <path d="M31.681 5.16s-.312-2.344-1.275-3.374C29.188.432 27.825.425 27.2.346 22.725 0 16.006 0 16.006 0h-.012S9.275 0 4.8.345c-.625.08-1.987.087-3.206 1.441C.63 2.816.325 5.16.325 5.16S0 7.916 0 10.665v2.576c0 2.75.319 5.506.319 5.506S.63 21.09 1.587 22.12c1.22 1.355 2.82 1.308 3.532 1.454 2.562.26 10.881.339 10.881.339s6.725-.013 11.2-.352c.625-.08 1.988-.086 3.206-1.441.963-1.03 1.275-3.373 1.275-3.373S32 15.997 32 13.24v-2.576c0-2.75-.319-5.505-.319-5.505ZM12.694 16.37V6.812l8.643 4.795-8.643 4.761Z" fill="#000"/>
</svg>
